X: 5302
T: Brown Hat, The
R: reel
M: 4/4
K: Eminor
|:EFGA BGEc-|cABG AGFG|EFGA BecA-|AFDG FDGF|
EFGA BGEc-|cABG AGFG|EFGA Befd-|dcBA AGFD:|
Eee^d efg=d-|dA^GA BA=GD|Eee^d efgb-|be^cA cdef|
Eee^d efg=d-|dA^GA BA=GD|Eee^d efgb-|be^cA dcBA|
Bfge fbge-|ed^cd edcA|Ffge fgab-|bgaf ge e2|
Bfge fbge-|ed^cd edcA|F3 G3 A2-|AB3 d2 e2||

